images/EXPERIENCIA-TOGGLE/DESARROLLO MOBILE.svg

<svg width="32" height="37" viewBox="0 0 32 37" fill="none" xmlns="http://www.w3.org/2000/svg">
<path d="M9.36476 34.3211C9.64004 34.8636 9.78161 35.5469 10.2122 35.8933C10.8277 36.3863 11.6496 36.9249 12.3929 36.9382C17.6665 37.0258 22.9401 37.0029 28.2157 36.9744C29.8812 36.9649 31.0688 35.8 31.0708 34.1993C31.0846 23.7327 31.0846 13.2681 31.0669 2.80345C31.0649 1.20273 29.8871 0.0378779 28.2138 0.0264578C22.9401 -0.00780261 17.6645 -0.00780261 12.3909 0.0207477C10.7333 0.0302645 9.58105 1.22367 9.49453 2.90433C9.45324 3.69613 9.49847 4.48983 9.48077 5.28162C9.46504 6.03345 9.62234 6.7453 8.80829 7.38864C8.41306 7.70079 8.54284 8.68482 8.51335 9.36813C8.47992 10.1428 8.33048 10.9917 9.31953 11.4161C9.41785 11.458 9.47487 11.6902 9.47487 11.833C9.4847 13.98 9.48077 16.1269 9.48077 18.2644C3.11584 18.7726 -0.0695783 21.6029 0.00120868 26.5992C0.0660968 31.1654 3.54056 34.0223 9.36476 34.3211ZM29.7927 6.29611C29.8478 6.48645 29.8812 6.54545 29.8812 6.60445C29.8871 15.7406 29.895 24.8748 29.8871 34.0109C29.8851 35.1548 29.1615 35.821 27.9601 35.8229C22.8477 35.8324 17.7353 35.8419 12.6249 35.8038C12.153 35.8 11.5926 35.564 11.2327 35.2576C10.515 34.6485 10.7274 34.0965 11.5297 33.6112C12.5718 32.9812 13.6985 32.353 14.4831 31.468C18.1404 27.3491 16.6362 21.266 11.5061 18.9763C11.1974 18.8392 10.8061 18.4376 10.8021 18.1559C10.7608 13.0492 10.7648 7.94251 10.7844 2.83581C10.7884 1.86129 11.451 1.1875 12.4361 1.1837C17.6763 1.16086 22.9185 1.16276 28.1626 1.18179C29.0888 1.1856 29.7966 1.83084 29.8714 2.71209C29.9343 3.46011 29.8851 4.21765 29.8851 5.07796C29.4132 5.07796 29.0278 5.07796 28.6444 5.07796C23.9921 5.07796 19.3379 5.06845 14.6856 5.09129C14.137 5.09319 13.2246 4.78865 13.2344 5.71178C13.2443 6.53593 14.1016 6.28279 14.6404 6.2885C16.8348 6.31134 19.0311 6.29801 21.2275 6.29801C24.0688 6.29611 26.916 6.29611 29.7927 6.29611ZM15.2283 26.3137C15.2302 30.0557 12.1313 33.0992 8.27542 33.1429C4.44702 33.1867 1.18492 30.0538 1.18099 26.3251C1.17509 22.5869 4.41556 19.4692 8.26362 19.5111C12.1372 19.553 15.2263 22.5698 15.2283 26.3137Z" fill="white"/>
<path d="M22.0867 32.7678C22.0887 31.5249 21.0288 30.499 19.7763 30.5314C18.5749 30.5618 17.5288 31.5934 17.5229 32.7545C17.517 33.9574 18.6201 35.0138 19.8589 34.9871C21.0937 34.9605 22.0848 33.9726 22.0867 32.7678ZM20.0182 31.6125C20.2974 31.9913 20.7378 32.3415 20.8185 32.7545C20.9364 33.3712 20.4567 33.8413 19.8255 33.71C19.4322 33.6281 18.9269 33.1847 18.8325 32.8154C18.683 32.233 19.1097 31.8219 20.0182 31.6125Z" fill="white"/>
<path d="M15.3836 3.30578C15.7414 3.53609 16.1445 3.99099 16.4474 3.93579C16.7816 3.87488 17.2162 3.36478 17.2496 3.01837C17.2732 2.76332 16.7246 2.23609 16.4257 2.23229C16.0797 2.22848 15.7277 2.66435 15.3777 2.90988C15.3796 3.04121 15.3816 3.17255 15.3836 3.30578Z" fill="white"/>
<path d="M4.05373 26.3173C4.78323 25.5636 5.4852 24.9013 6.09672 24.1704C6.28549 23.9458 6.23043 23.5289 6.28745 23.2016C5.94532 23.2472 5.48913 23.1749 5.28267 23.3614C4.44896 24.1133 3.69586 24.9507 2.90147 25.7444C2.51215 26.1346 2.49051 26.4887 2.89164 26.8884C3.68799 27.6821 4.43519 28.5214 5.2689 29.2752C5.47733 29.4636 5.92959 29.3989 6.26976 29.4484C6.22257 29.1229 6.28942 28.7061 6.10655 28.4853C5.49503 27.7525 4.79306 27.0863 4.05373 26.3173Z" fill="white"/>
<path d="M12.4145 26.3154C11.6948 27.0501 11.0046 27.6821 10.4167 28.3939C10.2083 28.6471 10.2496 29.0924 10.1768 29.4503C10.5366 29.3741 11.0027 29.4084 11.2406 29.2009C12.0114 28.5195 12.6838 27.7353 13.4232 27.0216C13.9089 26.5515 13.9678 26.1499 13.4507 25.655C12.731 24.966 12.094 24.1932 11.3468 23.5346C11.0754 23.2967 10.4108 23.0721 10.2378 23.2111C9.70096 23.6336 10.1748 24.0352 10.5111 24.3797C11.1147 24.9964 11.7223 25.6112 12.4145 26.3154Z" fill="white"/>
<path d="M9.52596 28.9687C9.03635 27.0425 8.60376 25.2648 8.10628 23.5042C8.05319 23.3158 7.62061 23.2282 7.36302 23.0931C7.23128 23.3462 6.9442 23.6336 6.99335 23.8487C7.38858 25.6017 7.82903 27.3471 8.31274 29.0791C8.36977 29.2828 8.79056 29.5321 9.01668 29.5112C9.22118 29.4902 9.38831 29.1267 9.52596 28.9687Z" fill="white"/>
</svg>

<svg width="32" height="37" fill="none" xmlns="http://www.w3.org/2000/svg"><path d="M9.365 34.321c.275.543.417 1.226.847 1.572.616.493 1.438 1.032 2.18 1.045 5.274.088 10.548.065 15.824.036 1.665-.01 2.853-1.174 2.855-2.775.014-10.466.014-20.93-.004-31.396-.002-1.6-1.18-2.765-2.853-2.777C22.94-.008 17.664-.008 12.39.021c-1.658.01-2.81 1.203-2.896 2.883-.042.792.003 1.586-.014 2.378-.016.751.141 1.463-.673 2.107-.395.312-.265 1.296-.295 1.98-.033.774-.183 1.623.807 2.047.098.042.155.274.155.417.01 2.147.006 4.294.006 6.431C3.116 18.773-.07 21.603 0 26.6c.065 4.566 3.54 7.423 9.364 7.722ZM29.793 6.296c.055.19.088.25.088.308.006 9.137.014 18.27.006 27.407-.002 1.144-.726 1.81-1.927 1.812-5.112.01-10.225.019-15.335-.02-.472-.003-1.032-.239-1.392-.545-.718-.61-.506-1.162.297-1.647 1.042-.63 2.168-1.258 2.953-2.143 3.657-4.119 2.153-10.202-2.977-12.492-.309-.137-.7-.538-.704-.82-.041-5.107-.037-10.213-.018-15.32.004-.975.667-1.648 1.652-1.652 5.24-.023 10.483-.021 15.727-.002.926.004 1.634.649 1.708 1.53.063.748.014 1.506.014 2.366h-1.24c-4.653 0-9.307-.01-13.96.013-.548.002-1.46-.302-1.45.62.01.825.867.572 1.405.577 2.195.023 4.391.01 6.587.01 2.842-.002 5.689-.002 8.566-.002ZM15.228 26.314c.002 3.742-3.097 6.785-6.953 6.829-3.828.044-7.09-3.09-7.094-6.818-.006-3.738 3.235-6.856 7.083-6.814 3.873.042 6.962 3.059 6.964 6.803Z" fill="#fff"/><path d="M22.087 32.768c.002-1.243-1.058-2.269-2.31-2.237-1.202.03-2.248 1.062-2.254 2.224-.006 1.202 1.097 2.259 2.336 2.232 1.235-.026 2.226-1.014 2.228-2.22Zm-2.069-1.155c.28.378.72.729.8 1.142.118.616-.361 1.086-.992.955-.394-.082-.9-.525-.994-.895-.149-.582.278-.993 1.186-1.202ZM15.384 3.306c.357.23.76.685 1.063.63.335-.061.77-.571.803-.918.023-.255-.525-.782-.824-.786-.346-.004-.698.432-1.048.678l.006.396ZM4.054 26.317c.73-.753 1.431-1.416 2.043-2.147.188-.224.133-.641.19-.968-.342.045-.798-.027-1.004.16-.834.751-1.587 1.589-2.382 2.382-.389.39-.41.745-.01 1.144.797.794 1.544 1.633 2.378 2.387.208.189.66.124 1 .173-.046-.325.02-.742-.162-.963-.612-.732-1.314-1.399-2.053-2.168ZM12.415 26.315c-.72.735-1.41 1.367-1.998 2.079-.209.253-.167.698-.24 1.056.36-.076.826-.042 1.064-.25.77-.68 1.443-1.465 2.182-2.178.486-.47.545-.872.028-1.367-.72-.689-1.357-1.462-2.104-2.12-.272-.238-.936-.463-1.11-.324-.536.423-.062.824.274 1.169.604.616 1.211 1.231 1.904 1.935ZM9.526 28.969c-.49-1.927-.922-3.704-1.42-5.465-.053-.188-.485-.276-.743-.41-.132.252-.419.54-.37.755.396 1.753.836 3.498 1.32 5.23.057.204.478.453.704.432.204-.02.371-.384.509-.542Z" fill="#fff"/></svg>
